X: 41745
T: Valse Des Yeux Bleus, La
R: waltz
M: 3/4
K: Dmajor
de|f3 f db|a3 a gf|e3 e fg|f3 d de|
f3 f df|e3 f2 e|d3 B df|e4 de|
f3 f db|a3 a fg|a3 a gf|b3 g2 a|
b3 b2 _b|a3 a gf|e2 dc de|d6||
[K:G]
B3 B ce|d3 d ef|gf ed ed|d3 c3|
f3 a2 f|e3 d2 a|e3 d2 a|e3 d3|
B3 B ce|d3 de f|gf ga gf|e3 e3|
a3 b2 a|g3 g2 g|f3 ab a|g4||

